X: 45
T: Missa L'homme arm\'e / Agnus Dei
N: Derived from Ock1008e-Missa_Lhomme_arme-Agnus.krn
C: Johannes Ockeghem
%%abc-version 2.0
%%abcx-abcm2ps-target-version 5.9.1 (29 Sep 2008)
%%abc-creator hum2abc beta
%%abcx-conversion-date 2019/02/17 07:26:15
%%abc-edited-by Jesse Rodin
%%abc-edited-by Jesse Rodin
%%abcx-initial-encoding-date <2012///
%%humdrum-veritas 74584860
%%humdrum-veritas-data 4021754948
%%linebreak <none>
%%barnumbers 0
L: 1/4
M: 3/1
Q: 1/2=120
%%staves [1 2 3 4]
V: 1 clef=treble
V: 2 clef=treble-8
V: 3 clef=bass
V: 4 clef=bass
K: C
[V:1] G8A4 | 
[V:2] G8F4 | 
[V:3] D8D,4 | 
[V:4] z12 :
[V:1] G4c6B2 | 
[V:2] G4A8 | 
[V:3] E,4F,8 | 
[V:4] x12 | 
[V:1] B4G2G4E2 | 
[V:2] G4c8 | 
[V:3] G,4C,8 | 
[V:4] z12 :
[V:1] D12- | 
[V:2] B4G2G4FE | 
[V:3] G,2A,2B,6G,2 | 
[V:4] x12 | 
[V:1] D8z4 | 
[V:2] D8_B4- | 
[V:3] G,6F,E,D,4 | 
[V:4] G,,8G,,4 :
[V:1] z12 | 
[V:2] B2A2A6G2 | 
[V:3] z4E,6D,2 | 
[V:4] C,8C,4 | 
[V:1] z12 | 
[V:2] G2FG(3A4E4^F4 | 
[V:3] D,4C,6B,,C, | 
[V:4] B,,4A,,8 :
[V:1] B,6C2D4 | 
[V:2] G6A2B4 | 
[V:3] D,8G,4 | 
[V:4] G,,12 | 
[V:1] E4D2G4E2 | 
[V:2] c4B4c4 | 
[V:3] C,4G,3F,E,4 | 
[V:4] z12 :
[V:1] F3GA2_B4A2 | 
[V:2] d12- | 
[V:3] D,4F,2G,4F,2 | 
[V:4] x12 | 
[V:1] G2F2E4D4 | 
[V:2] d4c4d4 | 
[V:3] G,2D,2A,4_B,2G,2 | 
[V:4] z12 :
[V:1] F3GABc3BG2 | 
[V:2] A4d2e2c2B2 | 
[V:3] z2F,3E,C,2E,4 | 
[V:4] x12 | 
[V:1] F2_B3AA2B2G2 | 
[V:2] d6c2_B4 | 
[V:3] F,2D,2F,4G,4 | 
[V:4] D,4D,4G,,4 :
[V:1] A4z4A4 | 
[V:2] A6F2F4 | 
[V:3] D,8z4 | 
[V:4] z4D,4D,4 | 
[V:1] B4c3BA2G2 | 
[V:2] z4G4c4 | 
[V:3] F,4E,8 | 
[V:4] D,4C,8 :
[V:1] G3EF3GA4 | 
[V:2] d4c2c4A2 | 
[V:3] D,2G,2A,2^F,3E,F,2 | 
[V:4] B,,4A,,8 | 
[V:1] z2D4G3EF2 | 
[V:2] B4G4A4 | 
[V:3] G,6E,2D,4 | 
[V:4] G,,8z4 :
[V:1] G2A3G/F/EDF2G2 | 
[V:2] B2A2c4d2e2 | 
[V:3] G,2F,2A,4D,2G,2 | 
[V:4] z12 | 
[V:1] A2_B4A2G3E | 
[V:2] f2d4c2_B4 | 
[V:3] F,2G,3D,F,2G,4 | 
[V:4] z12 :
[V:1] F3GA2G4c2 | 
[V:2] A4c4e4 | 
[V:3] D,2F,4E,2C,4 | 
[V:4] x12 | 
[V:1] B2A4G2^FF2E | 
[V:2] d3cd2B2A4 | 
[V:3] F,4F,2D,4F,2 | 
[V:4] D,4D,4D,4 :
[V:1] G12- | 
[V:2] G12- | 
[V:3] E,3D,D,8 | 
[V:4] G,,12- | 
[V:1] G12 ||  
[V:2] G12 ||  
[V:3] D12 ||  
[V:4] G,,12 ||  
[V:1]  [K:C] [K:clef=treble][M:3/1]z12 | 
[V:2]  [K:C] [K:clef=treble-8][M:3/1]G4d2d4c2 | 
[V:3]  [K:C] [K:clef=bass][M:3/1]z12 | 
[V:4]  [K:C] [K:clef=bass][M:3/1]z12 | 
[V:1] D4A2A4G2 | 
[V:2] d3c/B/A2Bc2dB2 | 
[V:3] z12 | 
[V:4] z12 | 
[V:1] A4F2G2E2D2- | 
[V:2] A6B2c2B2 | 
[V:3] z12 | 
[V:4] z12 | 
[V:1] D2F2G2_B2A3G | 
[V:2] d4G4F2c2- | 
[V:3] z12 | 
[V:4] z12 | 
[V:1] c3AB2c3BAG/F/ | 
[V:2] c2A2G2EF2GAB | 
[V:3] z12 | 
[V:4] z12 | 
[V:1] EA2FEGFD2G2^F | 
[V:2] cABd2cdGBcA2 | 
[V:3] z12 | 
[V:4] z12 | 
[V:1] G8z4 | 
[V:2] G8z2F2 | 
[V:3] z4G,,2C,2D,2F,2- | 
[V:4] z12 | 
[V:1] z12 | 
[V:2] A2B2c3BA2G2 | 
[V:3] F,E,D,2C,2E,2F,2G,2- | 
[V:4] z12 | 
[V:1] z12 | 
[V:2] B2c2d4c2B2 | 
[V:3] G,2E,2D,2F,4G,2 | 
[V:4] z12 | 
[V:1] z12 | 
[V:2] A4z2G2A2B2 | 
[V:3] A,2F,2G,4C,2D,2 | 
[V:4] z12 | 
[V:1] z12 | 
[V:2] c3BA2G2F2A2- | 
[V:3] E,2F,4E,2D,2C,2 | 
[V:4] z12 | 
[V:1] z12 | 
[V:2] A2D4B2c2d2- | 
[V:3] D,4G,,4E,2F,2 | 
[V:4] z12 | 
[V:1] z12 | 
[V:2] d2B2A4F2G2 | 
[V:3] G,4F,2D,4B,,2 | 
[V:4] z12 | 
[V:1] z12 | 
[V:2] A2B2G2c4A2 | 
[V:3] C,2D,2E,4A,,4 | 
[V:4] z12 | 
[V:1] z12 | 
[V:2] Bd2cBAA/G/AB^G2^F | 
[V:3] G,,2D,4C,2B,,4 | 
[V:4] z12 | 
[V:1] z4z4F4 | 
[V:2] A8z2A2 | 
[V:3] A,,12 | 
[V:4] z12 | 
[V:1] G2A4G4c2 | 
[V:2] B2A2c4e4 | 
[V:3] z4z4C,4 | 
[V:4] z12 | 
[V:1] B2A4G2F2A2- | 
[V:2] d4c2B2d3c | 
[V:3] D,4E,4D,4 | 
[V:4] z12 | 
[V:1] AGEFG3F2ED2 | 
[V:2] ABc3_B2AFc2=B | 
[V:3] z12 | 
[V:4] z12 | 
[V:1] C2E3DF2G2A2- | 
[V:2] c4z2A2_B2A2 | 
[V:3] C,4D,4_B,,2F,2- | 
[V:4] z12 | 
[V:1] AGc2BA2FGEFD- | 
[V:2] c2e2d4c2d2 | 
[V:3] F,E,C,2G,F,2D,E,2D,2 | 
[V:4] z12 | 
[V:1] DG2FECB,CED2B, | 
[V:2] BGA2zG2C2GFG | 
[V:3] z2D,2C,2G,,A,,2_B,,2G,, | 
[V:4] z12 | 
[V:1] CG,A,2G,8 ||  
[V:2] AG2^FG8 ||  
[V:3] F,,G,,D,2G,,8 ||  
[V:4] z12 ||  
[V:1]  [K:F] [K:clef=treble][M:2/1]z8 | 
[V:2]  [K:F] [K:clef=treble-8][M:2/1]G6A2 | 
[V:3]  [K:F] [K:clef=bass][M:2/1]z8 | 
[V:4]  [K:F] [K:clef=bass][M:2/1]G,8- :
[V:1] z8 | 
[V:2] B2cd_e2d2- | 
[V:3] z8 | 
[V:4] G,8 :
[V:1] z8 | 
[V:2] d2c2B2G2 | 
[V:3] z8 | 
[V:4] G,8 :
[V:1] z8 | 
[V:2] A3Bc2d2 | 
[V:3] z8 | 
[V:4] F,8- :
[V:1] z8 | 
[V:2] c2d4cB | 
[V:3] z8 | 
[V:4] F,8 :
[V:1] z8 | 
[V:2] A2G2A2c2 | 
[V:3] z8 | 
[V:4] F,8 | 
[V:1] z8 | 
[V:2] B2_e2d2g2- | 
[V:3] z8 | 
[V:4] G,8- :
[V:1] z8 | 
[V:2] gf_ed_e2d2- | 
[V:3] z8 | 
[V:4] G,8 :
[V:1] z8 | 
[V:2] d2B2c3B | 
[V:3] z8 | 
[V:4] _E,8 :
[V:1] z4z2D2 | 
[V:2] d8 | 
[V:3] z8 | 
[V:4] D,8- :
[V:1] F2G2A2B2 | 
[V:2] z2B2A2d2 | 
[V:3] z8 | 
[V:4] D,8 :
[V:1] G2c3BAG | 
[V:2] e2c2f4 | 
[V:3] z8 | 
[V:4] z8 | 
[V:1] G3EF3G | 
[V:2] e4d4- | 
[V:3] z8 | 
[V:4] z8 :
[V:1] A2A3Bc2- | 
[V:2] d2c2A4 | 
[V:3] z8 | 
[V:4] x8 :
[V:1] cBG2B2A2- | 
[V:2] c4d4 | 
[V:3] z8 | 
[V:4] x8 :
[V:1] ABG4^F2 | 
[V:2] G4A4 | 
[V:3] z8 | 
[V:4] z8 :
[V:1] G4F2E2- | 
[V:2] G8 | 
[V:3] z8 | 
[V:4] x8 :
[V:1] E2DC=B,2E2- | 
[V:2] G4G4- | 
[V:3] z8 | 
[V:4] x8 | 
[V:1] ED=B,2A,2D2 | 
[V:2] G4^F4 | 
[V:3] z8 | 
[V:4] z8 :
[V:1] G,8 | 
[V:2] G8 | 
[V:3] z4z2G,2- | 
[V:4] x8 :
[V:1] z8 | 
[V:2] z8 | 
[V:3] G,2E,2D,2G,2 | 
[V:4] x8 :
[V:1] z8 | 
[V:2] z8 | 
[V:3] C,4B,,2C,2- | 
[V:4] G,8- :
[V:1] z8 | 
[V:2] z8 | 
[V:3] C,D,_E,4C,2- | 
[V:4] G,8 :
[V:1] z8 | 
[V:2] z8 | 
[V:3] C,D,_E,3F,G,2 | 
[V:4] G,8 | 
[V:1] z8 | 
[V:2] z8 | 
[V:3] D,2C,D,_E,D,C,B,, | 
[V:4] F,8- :
[V:1] z8 | 
[V:2] z8 | 
[V:3] A,,2B,,2C,2D,2- | 
[V:4] F,8 :
[V:1] z8 | 
[V:2] z8 | 
[V:3] D,2C,B,,C,2D,2 | 
[V:4] F,8 :
[V:1] z8 | 
[V:2] z8 | 
[V:3] G,,3A,,B,,2C,2 | 
[V:4] G,8- :
[V:1] z8 | 
[V:2] z8 | 
[V:3] G,,2C,3D,_E,F, | 
[V:4] G,8 :
[V:1] z8 | 
[V:2] z8 | 
[V:3] G,F,_E,D,C,3B,, | 
[V:4] _E,8 | 
[V:1] z8 | 
[V:2] z2D2F2G2 | 
[V:3] D,4z4 | 
[V:4] D,8- :
[V:1] z8 | 
[V:2] A2B3cd2- | 
[V:3] z8 | 
[V:4] D,8 :
[V:1] z8 | 
[V:2] d2c2B2G2 | 
[V:3] z8 | 
[V:4] G,8 :
[V:1] z2A,2C3D | 
[V:2] F4z4 | 
[V:3] z8 | 
[V:4] A,8- :
[V:1] E2F3GA2 | 
[V:2] z8 | 
[V:3] z8 | 
[V:4] A,8 :
[V:1] D2E3DC=B, | 
[V:2] z8 | 
[V:3] z8 | 
[V:4] G,8 | 
[V:1] C2A,4D2- | 
[V:2] z8 | 
[V:3] z8 | 
[V:4] F,8 :
[V:1] DCC2D2E2- | 
[V:2] G6C2 | 
[V:3] z8 | 
[V:4] E,8- :
[V:1] E2=B,2C3B, | 
[V:2] G8 | 
[V:3] z4C,4 | 
[V:4] E,8 :
[V:1] D6C2 | 
[V:2] A8 | 
[V:3] F,8 | 
[V:4] D,8- :
[V:1] B,4A,4 | 
[V:2] z4A4 | 
[V:3] B,,4F,4 | 
[V:4] D,8 :
[V:1] B,4G,4 | 
[V:2] G4B4 | 
[V:3] G,8 | 
[V:4] z8 | 
[V:1] F,6C2- | 
[V:2] c4A4- | 
[V:3] A,4F,4- | 
[V:4] z8 :
[V:1] C2D2B,4 | 
[V:2] A2G2G4- | 
[V:3] F,4G,4 | 
[V:4] x8 :
[V:1] A,8 | 
[V:2] G2^F4E^F | 
[V:3] D,8 | 
[V:4] x8 :
[V:1] G,8- | 
[V:2] G8 | 
[V:3] z4D,4- | 
[V:4] G,,8- :
[V:1] G,8 | 
[V:2] B6c2 | 
[V:3] D,8- | 
[V:4] G,,8 :
[V:1] z8 | 
[V:2] d8 | 
[V:3] D,4D,4 | 
[V:4] G,,8 | 
[V:1] G,8 | 
[V:2] z4c4 | 
[V:3] E,4C,4 | 
[V:4] C,8- :
[V:1] A,4G,4 | 
[V:2] c6BA | 
[V:3] E,8- | 
[V:4] C,8 :
[V:1] C8 | 
[V:2] G4A4 | 
[V:3] E,8 | 
[V:4] C,8 :
[V:1] D8 | 
[V:2] D4G4 | 
[V:3] F,4D,4 | 
[V:4] B,,8 :
[V:1] C4C4- | 
[V:2] F2A4G2 | 
[V:3] z4C,4 | 
[V:4] A,,8- :
[V:1] C4A,4 | 
[V:2] E3DF4 | 
[V:3] C,6B,,C, | 
[V:4] A,,8 | 
[V:1] B,6C2 | 
[V:2] G8 | 
[V:3] D,4E,4 | 
[V:4] G,,8- :
[V:1] D2CD_E2D2- | 
[V:2] B8 | 
[V:3] D,2G,4F,2 | 
[V:4] G,,8- :
[V:1] D2C2B,4 | 
[V:2] d8 | 
[V:3] G,2E,2G,4 | 
[V:4] G,,8 :
[V:1] A,8 | 
[V:2] z4d4- | 
[V:3] F,8 | 
[V:4] D,8 :
[V:1] z4A4 | 
[V:2] d4d4 | 
[V:3] A,4F,4 | 
[V:4] D,8 :
[V:1] B6AG | 
[V:2] d4B4 | 
[V:3] G,8 | 
[V:4] G,,8 | 
[V:1] F6D2 | 
[V:2] A8- | 
[V:3] D,8 | 
[V:4] z8 :
[V:1] F6G2 | 
[V:2] A8 | 
[V:3] z4F,4- | 
[V:4] D,8 :
[V:1] A4B4- | 
[V:2] F8 | 
[V:3] F,4B,,4 | 
[V:4] D,8 :
[V:1] B4A4- | 
[V:2] z8 | 
[V:3] F,8 | 
[V:4] D,8 :
[V:1] A4G4 | 
[V:2] c8- | 
[V:3] E,8 | 
[V:4] C,8- :
[V:1] E8 | 
[V:2] c8 | 
[V:3] z4G,4 | 
[V:4] C,8 | 
[V:1] D4G4 | 
[V:2] d8 | 
[V:3] G,8 | 
[V:4] B,,8 :
[V:1] F4A4- | 
[V:2] c4A4 | 
[V:3] A,8 | 
[V:4] A,,8- :
[V:1] A4c4 | 
[V:2] c4e4- | 
[V:3] F,4E,4 | 
[V:4] A,,8 :
[V:1] B8 | 
[V:2] e2d2d4- | 
[V:3] G,8 | 
[V:4] G,,8 :
[V:1] A4F4- | 
[V:2] d4B4 | 
[V:3] F,6G,2 | 
[V:4] D,8 :
[V:1] F2D2D4 | 
[V:2] A4d4- | 
[V:3] A,4B,4 | 
[V:4] F,4G,4 | 
[V:1] z2G4E2 | 
[V:2] d4c4 | 
[V:3] G,8 | 
[V:4] C,8 :
[V:1] F4A4- | 
[V:2] d4f4 | 
[V:3] A,6B,2 | 
[V:4] D,8 :
[V:1] A2G2G4- | 
[V:2] e3cd2e2- | 
[V:3] C4B,4 | 
[V:4] C,4G,4 :
[V:1] G4A4 | 
[V:2] edd2e2f2- | 
[V:3] G,4C4- | 
[V:4] B,4A,4- :
[V:1] c4B4 | 
[V:2] f2e2g4 | 
[V:3] C4D4- | 
[V:4] A,4G,4 :
[V:1] A2F2G4 | 
[V:2] f2d2_e4 | 
[V:3] D4C4 | 
[V:4] z4C,4 | 
[V:1] z2F4G2- | 
[V:2] d4B4 | 
[V:3] A,4z4 | 
[V:4] D,6_E,2- :
[V:1] G2=E2F4 | 
[V:2] c4d4- | 
[V:3] G,4A,4 | 
[V:4] E,4D,4 :
[V:1] G2A3G/F/ED | 
[V:2] d2c2A2B2 | 
[V:3] D,2E,2F,2G,2 | 
[V:4] B,,2A,,4G,,2 :
[V:1] F2G2A2B2 | 
[V:2] A2d4B2 | 
[V:3] A,6G,2 | 
[V:4] D,3E,F,2G,2 :
[V:1] c4B2A2- | 
[V:2] A2f2e2f2- | 
[V:3] F,2A,2G,2D2- | 
[V:4] z2F,2G,2D,2 :
[V:1] A2G4^F2 | 
[V:2] fed2d3c | 
[V:3] DCB,2A,4 | 
[V:4] F,2G,2D,4 | 
[V:1] G8- | 
[V:2] d8 | 
[V:3] G,8- | 
[V:4] G,,8- :
[V:1] G8 |]  
[V:2] d8 |]  
[V:3] G,8 |]  
[V:4] G,,8 |]  



